img/logo.svg

<svg width="130" height="100" xmlns="http://www.w3.org/2000/svg"><title>Layer 1</title><path d="M101.2 59.4c0 2.5-2.1 4.6-4.6 4.6h-62.2c-2.6 0-4.6-2.1-4.6-4.6v-42.4c0-2.5 2.1-4.6 4.6-4.6h62.2c2.6 0 4.6 2.1 4.6 4.6v42.4z" fill="#84AF9B"/><path d="M90.2 23.9c-.2.4-.7.7-1.3.7-.4 0-.7-.1-.9-.3-.1 3.2-.5 6.3-.5 9.5-.1 4.1-.1 8.1-.3 12.2-.3 6-.7 12-.6 18h12.5c1.1 0 2-1.7 2-3.7v-17.7l-10.9-18.7z" fill="#708B7D"/><path d="M87 22.5h-62.5c-2.6 0-4.6 2.1-4.6 4.3v42.8c0 2.9 2.1 4.9 4.6 4.9h21.8l21.6 15.1v-15.1h19.1c2.6 0 4.6-2.1 4.6-4.6v-42.8c.1-2.5-2-4.6-4.6-4.6" fill="#F94569"/><path d="M48.6 49.1c0 2.3.6 4.1 1.8 5.6 1.3 1.5 2.8 2.2 4.8 2.2s3.7-.7 5-2.1c1.3-1.5 1.9-3.3 1.9-5.5s-.6-4.1-1.9-5.5c-1.3-1.4-2.9-2.1-4.9-2.1-1.9 0-3.5.7-4.8 2.2-1.2 1.2-1.9 3-1.9 5.2m13.1-11.9h5.5v23.9h-5.5v-2.5c-2.3 2.1-4.7 3.2-7.3 3.2-3.3 0-6-1.2-8.2-3.6-2.1-2.4-3.2-5.5-3.2-9.1 0-3.6 1.1-6.6 3.2-8.9 2.1-2.4 4.8-3.6 8-3.6 2.8 0 5.3 1.1 7.5 3.4v-2.8z" fill="#fff"/><path d="M114.6 14.6c0-1.2-.7-1.4-1.5-.6l-5.5 5.7c-.8.8-1.5 2.5-1.5 3.7v30c0 1.2.7 2.8 1.5 3.7l5.5 5.7c.8.8 1.5.6 1.5-.6v-47.6z" fill="#84AF9B"/></svg>

<svg width="130" height="100" xmlns="http://www.w3.org/2000/svg"><path d="M101.2 59.4c0 2.5-2.1 4.6-4.6 4.6H34.4c-2.6 0-4.6-2.1-4.6-4.6V17c0-2.5 2.1-4.6 4.6-4.6h62.2c2.6 0 4.6 2.1 4.6 4.6v42.4z" fill="#84AF9B"/><path d="M90.2 23.9c-.2.4-.7.7-1.3.7-.4 0-.7-.1-.9-.3-.1 3.2-.5 6.3-.5 9.5-.1 4.1-.1 8.1-.3 12.2-.3 6-.7 12-.6 18h12.5c1.1 0 2-1.7 2-3.7V42.6L90.2 23.9z" fill="#708B7D"/><path d="M87 22.5H24.5c-2.6 0-4.6 2.1-4.6 4.3v42.8c0 2.9 2.1 4.9 4.6 4.9h21.8l21.6 15.1V74.5H87c2.6 0 4.6-2.1 4.6-4.6V27.1c.1-2.5-2-4.6-4.6-4.6" fill="#F94569"/><path d="M48.6 49.1c0 2.3.6 4.1 1.8 5.6 1.3 1.5 2.8 2.2 4.8 2.2s3.7-.7 5-2.1c1.3-1.5 1.9-3.3 1.9-5.5s-.6-4.1-1.9-5.5c-1.3-1.4-2.9-2.1-4.9-2.1-1.9 0-3.5.7-4.8 2.2-1.2 1.2-1.9 3-1.9 5.2m13.1-11.9h5.5v23.9h-5.5v-2.5c-2.3 2.1-4.7 3.2-7.3 3.2-3.3 0-6-1.2-8.2-3.6-2.1-2.4-3.2-5.5-3.2-9.1 0-3.6 1.1-6.6 3.2-8.9 2.1-2.4 4.8-3.6 8-3.6 2.8 0 5.3 1.1 7.5 3.4v-2.8z" fill="#fff"/><path d="M114.6 14.6c0-1.2-.7-1.4-1.5-.6l-5.5 5.7c-.8.8-1.5 2.5-1.5 3.7v30c0 1.2.7 2.8 1.5 3.7l5.5 5.7c.8.8 1.5.6 1.5-.6V14.6z" fill="#84AF9B"/></svg>
